static/img/icons/okteto.svg

<svg fill="none" height="26" viewBox="0 0 26 26" width="26" xmlns="http://www.w3.org/2000/svg"><g stroke="#fff" stroke-width="1.5"><path d="m19.6 1c1.7552.19429 2.9366.63338 3.8184 1.62575 1.5816 1.77994 1.5816 4.6447 1.5816 10.37425 0 5.7296 0 8.5943-1.5816 10.3743-.8818.9924-2.0632 1.4314-3.8184 1.6257m-13.19999 0c-1.75516-.1943-2.93659-.6333-3.81838-1.6257-1.58163-1.78-1.58163-4.6447-1.58163-10.3743 0-5.72955 0-8.59431 1.58163-10.37425.88179-.99237 2.06322-1.43146 3.81838-1.62575" stroke-linecap="round" stroke-linejoin="round"/><path d="m13 4.75c4.5563 0 8.25 3.69365 8.25 8.25 0 4.5563-3.6937 8.25-8.25 8.25-4.55635 0-8.25-3.6937-8.25-8.25 0-4.55635 3.69365-8.25 8.25-8.25z"/><path d="m13 4.75c4.5563 0 8.25 3.69365 8.25 8.25 0 4.5563-3.6937 8.25-8.25 8.25-4.55635 0-8.25-3.6937-8.25-8.25 0-4.55635 3.69365-8.25 8.25-8.25z"/></g><path d="m10.2609 13c0-1.4996 1.2391-2.7391 2.7974-2.7391.8908 0 1.6806.4064 2.1926 1.0379.3062.3777.8606.4357 1.2383.1295.3778-.3063.4357-.8607.1295-1.2384-.8358-1.031-2.1222-1.6899-3.5604-1.6899-2.5042 0-4.5583 2.0015-4.5583 4.5s2.0541 4.5 4.5583 4.5c1.4382 0 2.7246-.6589 3.5604-1.6899.3062-.3777.2483-.9321-.1295-1.2384-.3777-.3062-.9321-.2482-1.2383.1295-.512.6315-1.3018 1.0379-2.1926 1.0379-1.5583 0-2.7974-1.2395-2.7974-2.7391z" fill="#fff"/><path d="m16.6196 13.8804c.4862 0 .8804-.3941.8804-.8804s-.3942-.8804-.8804-.8804c-.4863 0-.8805.3941-.8805.8804s.3942.8804.8805.8804z" fill="#fff"/></svg>

<svg width="26" height="26" viewBox="0 0 26 26" fill="none" xmlns="http://www.w3.org/2000/svg">
<path d="M19.6 1C21.3552 1.19429 22.5366 1.63338 23.4184 2.62575C25 4.40569 25 7.27045 25 13C25 18.7296 25 21.5943 23.4184 23.3743C22.5366 24.3667 21.3552 24.8057 19.6 25M6.40001 25C4.64485 24.8057 3.46342 24.3667 2.58163 23.3743C1 21.5943 1 18.7296 1 13C1 7.27045 1 4.40569 2.58163 2.62575C3.46342 1.63338 4.64485 1.19429 6.40001 1" stroke="white" stroke-width="1.5" stroke-linecap="round" stroke-linejoin="round"/>
<path d="M13 4.75C17.5563 4.75 21.25 8.44365 21.25 13C21.25 17.5563 17.5563 21.25 13 21.25C8.44365 21.25 4.75 17.5563 4.75 13C4.75 8.44365 8.44365 4.75 13 4.75Z" stroke="white" stroke-width="1.5"/>
<path d="M13 4.75C17.5563 4.75 21.25 8.44365 21.25 13C21.25 17.5563 17.5563 21.25 13 21.25C8.44365 21.25 4.75 17.5563 4.75 13C4.75 8.44365 8.44365 4.75 13 4.75Z" stroke="white" stroke-width="1.5"/>
<path d="M10.2609 13C10.2609 11.5004 11.5 10.2609 13.0583 10.2609C13.9491 10.2609 14.7389 10.6673 15.2509 11.2988C15.5571 11.6765 16.1115 11.7345 16.4892 11.4283C16.867 11.122 16.9249 10.5676 16.6187 10.1899C15.7829 9.1589 14.4965 8.5 13.0583 8.5C10.5541 8.5 8.5 10.5015 8.5 13C8.5 15.4985 10.5541 17.5 13.0583 17.5C14.4965 17.5 15.7829 16.8411 16.6187 15.8101C16.9249 15.4324 16.867 14.878 16.4892 14.5717C16.1115 14.2655 15.5571 14.3235 15.2509 14.7012C14.7389 15.3327 13.9491 15.7391 13.0583 15.7391C11.5 15.7391 10.2609 14.4996 10.2609 13Z" fill="white"/>
<path d="M16.6196 13.8804C17.1058 13.8804 17.5 13.4863 17.5 13C17.5 12.5137 17.1058 12.1196 16.6196 12.1196C16.1333 12.1196 15.7391 12.5137 15.7391 13C15.7391 13.4863 16.1333 13.8804 16.6196 13.8804Z" fill="white"/>
</svg>
